X:43
T:Menuet
C:Rameau Jean Phil. (1683-1764)
N:Arranged for mandolin and guitar by Mike Stangeland 
L:1/8
Q:1/4=117
M:3/4
K:C
z6 | ed ce Be | ce Be Ae | fe dc BA | A/4^G/4A/4Gz/4 ^FG E2 | AG ^FA B^G | cB Ac dB | 
cd e/4d/4e/4d2z/4c/d/ | e6 | ed ce Be | ce Be AB/4c/4d/4e/4 | fe dc BA | A/4^G/4A/4Gz/4 ^FG E2 | 
AG ^FA B^G | cB Ac dB | cd e/4d/4e/4d2z/4c/d/ | eB ^GE3 | gf eg dg | ^cg Bg AB | 
^cd ef ge | f/4e/4f2z/e d2 | fe df cf | Bf Af GA | Bc de fd | e/4d/4e2z/d c2 | 
ed ce Be | ce Be Ae | fe dc BA | A/4^G/4A/4Gz/4 ^FG E2 | AG ^FA B^G | cB Ac dB | 
cd e/4d/4e/4d2z/4c/d/ | eB ^GE3 | gf eg dg | ^cg Bg AB | ^cd ef ge | f/4e/4f2z/e d2 | 
fe df cf | Bf Af GA | Bc de fd | e/4d/4e2z/d c2 | ed ce Be | ce ^Ge Ae | dc c/4B/4c/4B/4c/4B/4c/4Bz/4A | 
AE C4 | z6 | 
 

